X:22
T:Up and War them Willie. JMP.022
M:2/4
L:1/8
Q:1/2=100
C:â€23â€¦A Quick Marchâ€
S:John Miller MS. Perth, 1799.(for the fife)
R:.March
O:Scotland
A:Perth
H:1799
Z:vmp.C. Graebe
K:G major
B | G/G/G BG | c2ce | G/G/G BG | A2 AB |!
G/G/G BG | cdeg | dcBA | G2 â€ crâ€G :|!
|:d| gedB | c2 ce | gedB | A2Ad |!
gedB | cdeg | dcBA | G2 â€ crâ€G ğŸ˜

